dist/img/rouble_icon.svg

<svg width="68" height="68" viewBox="0 0 68 68" fill="none" xmlns="http://www.w3.org/2000/svg">
<circle cx="34" cy="34" r="34" fill="#0D1B2B"/>
<path d="M32.0799 35.0232V34.2732H31.3299V35.0232H32.0799ZM30.0537 25.0847V24.3347H29.3037V25.0847H30.0537ZM30.0537 26.549V27.299H30.8037V26.549H30.0537ZM30.0338 26.549V25.799H29.2838V26.549H30.0338ZM30.0338 32.9771V33.7271H30.7838V32.9771H30.0338ZM28.3852 32.9771V32.2271H27.6352V32.9771H28.3852ZM28.3852 35.0232H27.6352V35.7732H28.3852V35.0232ZM30.0338 35.0232H30.7838V34.2732H30.0338V35.0232ZM30.0338 36.9614V37.7114H30.7838V36.9614H30.0338ZM28.3852 36.9614V36.2114H27.6352V36.9614H28.3852ZM28.3852 39.0075H27.6352V39.7575H28.3852V39.0075ZM30.0338 39.0075H30.7838V38.2575H30.0338V39.0075ZM30.0338 42.9921H29.2838V43.7421H30.0338V42.9921ZM32.0799 42.9921V43.7421H32.8299V42.9921H32.0799ZM32.0799 39.0075V38.2575H31.3299V39.0075H32.0799ZM36.6127 39.0075V39.7575H37.3627V39.0075H36.6127ZM36.6127 36.9614H37.3627V36.2114H36.6127V36.9614ZM32.0799 36.9614H31.3299V37.7114H32.0799V36.9614ZM32.0999 27.1309V26.3809H31.3499V27.1309H32.0999ZM32.0999 32.9771H31.3499V33.7271H32.0999V32.9771ZM33.9999 15.2732C23.6573 15.2732 15.273 23.6575 15.273 34.0001H16.773C16.773 24.486 24.4857 16.7732 33.9999 16.7732V15.2732ZM52.7268 34.0001C52.7268 23.6575 44.3425 15.2732 33.9999 15.2732V16.7732C43.5141 16.7732 51.2268 24.486 51.2268 34.0001H52.7268ZM33.9999 52.7271C44.3425 52.7271 52.7268 44.3427 52.7268 34.0001H51.2268C51.2268 43.5143 43.5141 51.2271 33.9999 51.2271V52.7271ZM15.273 34.0001C15.273 44.3427 23.6573 52.7271 33.9999 52.7271V51.2271C24.4857 51.2271 16.773 43.5143 16.773 34.0001H15.273ZM14.7268 34.0001C14.7268 23.3559 23.3557 14.7271 33.9999 14.7271V13.2271C22.5272 13.2271 13.2268 22.5275 13.2268 34.0001H14.7268ZM33.9999 53.2732C23.3557 53.2732 14.7268 44.6444 14.7268 34.0001H13.2268C13.2268 45.4728 22.5272 54.7732 33.9999 54.7732V53.2732ZM53.273 34.0001C53.273 44.6444 44.6441 53.2732 33.9999 53.2732V54.7732C45.4725 54.7732 54.773 45.4728 54.773 34.0001H53.273ZM33.9999 14.7271C44.6441 14.7271 53.273 23.3559 53.273 34.0001H54.773C54.773 22.5275 45.4725 13.2271 33.9999 13.2271V14.7271ZM36.6127 34.2732H32.0799V35.7732H36.6127V34.2732ZM36.6307 34.2732H36.6127V35.7732H36.6307V34.2732ZM39.8268 31.0771C39.8268 32.8422 38.3958 34.2732 36.6307 34.2732V35.7732C39.2243 35.7732 41.3268 33.6707 41.3268 31.0771H39.8268ZM39.8268 29.0309V31.0771H41.3268V29.0309H39.8268ZM36.6307 25.8347C38.3958 25.8347 39.8268 27.2657 39.8268 29.0309H41.3268C41.3268 26.4373 39.2243 24.3347 36.6307 24.3347V25.8347ZM31.0768 25.8347H36.6307V24.3347H31.0768V25.8347ZM30.0537 25.8347H31.0768V24.3347H30.0537V25.8347ZM30.8037 26.1078V25.0847H29.3037V26.1078H30.8037ZM30.8037 26.549V26.1078H29.3037V26.549H30.8037ZM30.0338 27.299H30.0537V25.799H30.0338V27.299ZM30.7838 32.9771V26.549H29.2838V32.9771H30.7838ZM28.3852 33.7271H30.0338V32.2271H28.3852V33.7271ZM29.1352 35.0232V32.9771H27.6352V35.0232H29.1352ZM30.0338 34.2732H28.3852V35.7732H30.0338V34.2732ZM30.7838 36.9614V35.0232H29.2838V36.9614H30.7838ZM28.3852 37.7114H30.0338V36.2114H28.3852V37.7114ZM29.1352 39.0075V36.9614H27.6352V39.0075H29.1352ZM30.0338 38.2575H28.3852V39.7575H30.0338V38.2575ZM30.7838 42.9921V39.0075H29.2838V42.9921H30.7838ZM32.0799 42.2421H30.0338V43.7421H32.0799V42.2421ZM31.3299 39.0075V42.9921H32.8299V39.0075H31.3299ZM36.6127 38.2575H32.0799V39.7575H36.6127V38.2575ZM35.8627 36.9614V39.0075H37.3627V36.9614H35.8627ZM32.0799 37.7114H36.6127V36.2114H32.0799V37.7114ZM31.3299 35.0232V36.9614H32.8299V35.0232H31.3299ZM36.6127 33.7271H36.6307V32.2271H36.6127V33.7271ZM36.6307 33.7271C38.0942 33.7271 39.2807 32.5406 39.2807 31.0771H37.7807C37.7807 31.7122 37.2658 32.2271 36.6307 32.2271V33.7271ZM39.2807 31.0771V29.0309H37.7807V31.0771H39.2807ZM39.2807 29.0309C39.2807 27.5673 38.0942 26.3809 36.6307 26.3809V27.8809C37.2658 27.8809 37.7807 28.3958 37.7807 29.0309H39.2807ZM36.6307 26.3809H32.0999V27.8809H36.6307V26.3809ZM31.3499 27.1309V32.9771H32.8499V27.1309H31.3499ZM32.0999 33.7271H36.6127V32.2271H32.0999V33.7271Z" fill="white"/>
</svg>

<svg width="68" height="68" fill="none" xmlns="http://www.w3.org/2000/svg"><circle cx="34" cy="34" r="34" fill="#0D1B2B"/><path d="M32.08 35.023v-.75h-.75v.75h.75zm-2.026-9.938v-.75h-.75v.75h.75zm0 1.464v.75h.75v-.75h-.75zm-.02 0v-.75h-.75v.75h.75zm0 6.428v.75h.75v-.75h-.75zm-1.649 0v-.75h-.75v.75h.75zm0 2.046h-.75v.75h.75v-.75zm1.649 0h.75v-.75h-.75v.75zm0 1.938v.75h.75v-.75h-.75zm-1.649 0v-.75h-.75v.75h.75zm0 2.047h-.75v.75h.75v-.75zm1.649 0h.75v-.75h-.75v.75zm0 3.984h-.75v.75h.75v-.75zm2.046 0v.75h.75v-.75h-.75zm0-3.984v-.75h-.75v.75h.75zm4.533 0v.75h.75v-.75h-.75zm0-2.047h.75v-.75h-.75v.75zm-4.533 0h-.75v.75h.75v-.75zm.02-9.83v-.75h-.75v.75h.75zm0 5.846h-.75v.75h.75v-.75zM34 15.273c-10.343 0-18.727 8.384-18.727 18.727h1.5c0-9.514 7.713-17.227 17.227-17.227v-1.5zM52.727 34c0-10.343-8.384-18.727-18.727-18.727v1.5c9.514 0 17.227 7.713 17.227 17.227h1.5zM34 52.727c10.343 0 18.727-8.384 18.727-18.727h-1.5c0 9.514-7.713 17.227-17.227 17.227v1.5zM15.273 34c0 10.343 8.384 18.727 18.727 18.727v-1.5c-9.514 0-17.227-7.713-17.227-17.227h-1.5zm-.546 0c0-10.644 8.629-19.273 19.273-19.273v-1.5c-11.473 0-20.773 9.3-20.773 20.773h1.5zM34 53.273c-10.644 0-19.273-8.629-19.273-19.273h-1.5c0 11.473 9.3 20.773 20.773 20.773v-1.5zM53.273 34c0 10.644-8.629 19.273-19.273 19.273v1.5c11.472 0 20.773-9.3 20.773-20.773h-1.5zM34 14.727c10.644 0 19.273 8.629 19.273 19.273h1.5c0-11.473-9.3-20.773-20.773-20.773v1.5zm2.613 19.546H32.08v1.5h4.533v-1.5zm.018 0h-.018v1.5h.018v-1.5zm3.196-3.196a3.196 3.196 0 01-3.196 3.196v1.5a4.696 4.696 0 004.696-4.696h-1.5zm0-2.046v2.046h1.5v-2.046h-1.5zm-3.196-3.196a3.196 3.196 0 013.196 3.196h1.5a4.696 4.696 0 00-4.696-4.696v1.5zm-5.554 0h5.554v-1.5h-5.554v1.5zm-1.023 0h1.023v-1.5h-1.023v1.5zm.75.273v-1.023h-1.5v1.023h1.5zm0 .441v-.441h-1.5v.441h1.5zm-.77.75h.02v-1.5h-.02v1.5zm.75 5.678V26.55h-1.5v6.428h1.5zm-2.399.75h1.649v-1.5h-1.649v1.5zm.75 1.296v-2.046h-1.5v2.046h1.5zm.899-.75h-1.649v1.5h1.649v-1.5zm.75 2.688v-1.938h-1.5v1.938h1.5zm-2.399.75h1.649v-1.5h-1.649v1.5zm.75 1.297V36.96h-1.5v2.047h1.5zm.899-.75h-1.649v1.5h1.649v-1.5zm.75 4.734v-3.984h-1.5v3.984h1.5zm1.296-.75h-2.046v1.5h2.046v-1.5zm-.75-3.234v3.984h1.5v-3.984h-1.5zm5.283-.75H32.08v1.5h4.533v-1.5zm-.75-1.297v2.047h1.5V36.96h-1.5zm-3.783.75h4.533v-1.5H32.08v1.5zm-.75-2.688v1.938h1.5v-1.938h-1.5zm5.283-1.296h.018v-1.5h-.018v1.5zm.018 0a2.65 2.65 0 002.65-2.65h-1.5a1.15 1.15 0 01-1.15 1.15v1.5zm2.65-2.65v-2.046h-1.5v2.046h1.5zm0-2.046a2.65 2.65 0 00-2.65-2.65v1.5c.635 0 1.15.515 1.15 1.15h1.5zm-2.65-2.65H32.1v1.5h4.53v-1.5zm-5.281.75v5.846h1.5v-5.846h-1.5zm.75 6.596h4.513v-1.5H32.1v1.5z" fill="#fff"/></svg>
